X: 79
T:Mrs Saggs
C:Chris Woods
N:Lester's Version
M:2/4
L:1/8
Q:1/8=200
K:G
d | ga b2- | b2 a2 | gf g2- | g2 bd' |
e'/f'/ g' d'g'| c'g' d'g' | g'2 f' e'|
f'd'e' f'g'- | g'2 d'2 | c'b ag | d2 c2 |
B2 d2 | ec eg | ba gf | g3 :||
A | B c3- | c  B2  A | GD FA | df de |
f g2 d- | dc BA | G B2 A | G A3 |
B c3- | c B2 A | GF Ad | f a2 g |
f g2 d- | dc BA | G G2 :||
